X: 69
T: Boże wiecznej mocy,
C: Mikołaj Gomółka
%%abc-version 2.0
%%abcx-abcm2ps-target-version 5.9.1 (29 Sep 2008)
%%abc-creator hum2abc beta
%%abcx-conversion-date 2021/10/04 07:59:09
%%abc-edited-by Marta Lawrence
%%abcx-initial-encoding-date 2020-02-13
%%humdrum-veritas 1098486707
%%humdrum-veritas-data 3780068994
%%linebreak <none>
%%barnumbers 0
L: 1/4
M: C|
N: Derived from pl-wn--sd-xvi-qu-273--070_gomolka-mikolaj--boze-wiecznej-mocy.krn
%%staves [1 2 3 4]
V: 1 clef=treble
V: 2
V: 3 clef=alto
V: 4
K: Bb
[V:1] c4c2c4 [|] 
[V:2] A4G2G4 [|] 
[V:3] F4=E4 [|] 
[V:4] F,4C,4 [|] 
[V:1] A4B2 [|] 
[V:2] A4GF [|] 
[V:3] =E2F4D2 [|] 
[V:4] C,2F,4G,2 [|] 
[V:1] c2f2>=e2dc [|] 
[V:2] =E2AGF2BA2 [|] 
[V:3] C2C2D3=E [|] 
[V:4] A,G,F,=E,D,C,B,,C, [|] 
[V:1] ABc4B2[M:1/1] [|] 
[V:2] FG2A2GF[M:1/1] [|] 
[V:3] F2=E2D4[M:1/1] [|] 
[V:4] D,2=E,2F,2G,2[M:1/1] [|] 
[V:1] c4 [|] 
[V:2] =E4 [|] 
[V:3] C4 [|] 
[V:4] C,4 [|] 
[V:1] [M:3/1]G2G2c2c2>B2AG [|] 
[V:2] [M:3/1]C2C2C2C2>D2=E2 [|] 
[V:3] [M:3/1]=E2E2E2F4E2 [|] 
[V:4] [M:3/1]C,2C,2C,2F,G,A,B,C2 [|] 
[V:1] A2>G2F2G2A2G2 [|] 
[V:2] F2>=E2DCB,2C2C2 [|] 
[V:3] C4D2=E2F2E2 [|] 
[V:4] A,4B,A,G,2F,2C2 [|] 
[V:1] [M:C|]A4z2G2 [|] 
[V:2] [M:C|]C4z2C2 [|] 
[V:3] [M:C|]F4z2=E2 [|] 
[V:4] [M:C|]F,4z2C2 [|] 
[V:1] A2=B2c3=B [|] 
[V:2] C2G2G3F [|] 
[V:3] F2D2=E3D [|] 
[V:4] F,2G,2C,4 [|] 
[V:1] AGF2F2B2 [|] 
[V:2] FGAGF=EDE [|] 
[V:3] C2C4B,2 [|] 
[V:4] F,2F,4G,2 [|] 
[V:1] A2GF=EF2E [|] 
[V:2] F=ED2C3=B, [|] 
[V:3] A,2B,2G,4 [|] 
[V:4] F,2B,,2C,4 [|] 
[V:1] !fermata!F32 |]  
[V:2] A,32 |]  
[V:3] F,32 |]  
[V:4] F,32 |]  


